X: 19920
T: Jig Of Mass Destruction
R: jig
M: 6/8
K: Eminor
BeB dBc|BGF E2D|CEG FDA|DAG FDd|
BeB dBc|BGF E2D|CEG FDA|E6:|
|:e2g fda|g2g fdB|e2g fda|b3 baf|
e2g fda|g2g fdB|bge caf|e3 e3:|

